X: 22126
T: Kristan's
R: jig
M: 6/8
K: Dmajor
|:~D3 DBA|~D3 DEF|~A3 ABd|~e3 edB|
g3 fgf|efe edB|ABd BAF|1 ABA ABA:|2 ABA ABd||
|:~e3 edB|~e3 edB|~g3 fgf|efe efg|
agf gfe|def edB|ABd BAF|1 ABA ABd:|2 ABA ABA||

